!!!OTL: Graf und Nonne (Die Nonne) Es welken alle Blaetter,
!!!ARE: Europa, Osteuropa, Ungarn, Kalocsa, Hajos
!!!YOR: 8, S. 110
!!    1984 aufgezeichnet
!!!SCT: Q0155r
!!!YEM: Copyright 1995, estate of Helmut Schaffrath.
**kern
*ICvox
*Ivox
*M4/4
*k[b-]
*F:
{4c
=1
4.f
8c
4A
4c
=2
4f
4a
4a}
{4a
=3
4.g
8f
4e
4f
=4
4g
8c
8c
4c}
{8f
8g
=5
4.a
8a
4.a
8a
=6
4a
4cc
8b-
8a}
{8g
8a
=7
4.b-
8b-
4b-
4b-
=8
4b-
4dd
4cc}
{8cc
8b-
=9
4a
4a
4g
4b-
=10
2a
4r}
==
!!!AGN: Ballade, Standesunterschied, vergebliche Werbung, Liebe, Klage
!! Anhaengsel an der zweiten Zeile.
!!!ONB: ESAC (Essen Associative Code) Database: BALLADE
!!!AMT: simple quadruple
!!!AIN: vox
!!!EED: Helmut Schaffrath
!!!EEV: 1.0
*-
